X: 18
T: Pull The Knife And Stick It Again
Z: Fernando Durbán Galnares
S: https://thesession.org/tunes/398#setting51705
R: jig
M: 6/8
L: 1/8
K: Edor
|:B,|"Em"E2E GFE|"Bm"DB,E DB,D|"Em"E2E GFE|"D"ABG AFD|
"Em"E2E GFE|"Bm"DB,E DEF|"C"GFE "D"FED| "Bm"B,ED "Em"E2:|
|:B|"Em"edB BAF|"Bm"EDB, DBd|"Em"edB BAF|"D"ABc def|
"Em"edB BAF|"Bm"EDB, DEF|"C"GFE "D"FED| "Bm"B,ED "Em"E2:||

